X:6
T:Gloire  Dieu dans le ciel - C242-1
C:J. Berthier
M:C
L:1/4
K:C
"Do"z4!segno!|:"Do"EC"Sol"GA/B/|[M:2/4]"Lam"c2|[M:C]"Mim"GG"Fa"AF/E/|[1"Sol4/3"D2D2:|[2\
"Sol4/3"D2"Do"C2||
"Lam"EE/D/"Mi"E2|"Lam"E/E/E/D/"Mi"E2|"Fa"A2"Sol"GF|[M:2/4]"Do"E2|[M:C]"Mim"G/G/G/G/"Si"^F2|\
"Mim"G/G/A/G/"Si"^FF|
"Mim"GG/G/"Lam"cB|"Re"A2"Sol"G2!segno!||"Lam"EE"Mi"Ez/E/|"Lam"AE"Mi"Ez/E/|"Fa"AA"Sol"BG|\
[M:2/4]"Do"E2|[M:C]
"Mim"GG"Si"^Fz/F/|"Mim"BG"Si"^F2|"Mim"zG"Lam"cB|"Re"A2"Sol"G2!segno!||"Lam"EA"Mi"B2|\
"Lam"E/AA/"Mi"B2|"Fa"zA"Sol"BG|[M:2/4]
"Do"E2|[M:C]"Mim"GA"Si"B2|"Mim"z/G/ G/A/"Si"B2|"Mim"G3/G/"Lam"cB/B/|"Re"A2"Sol"G2!segno!||
